X:88
T:Night Before Larry Was Stretched, The
T:Night Poor Larry Was Stretched, The
R:slip jig
H:Also played in Gm (see #91) or Am or Bm
Z:hn-slipjig-88
M:9/8
L:1/8
K:Em
GFE EB,E E2G | FED DA,D FGA | GFE EB,E E2G | FGA ABG FED :|
|: GAB BcB d2B | GAB Bcd cAF | GAB BcB B2B | cBA ABG FED :|
P:variations
|: GFE EB,E E2G | FED DA,D FGA | GFE EB,E E2G | FGA ABG FED :|
|: GAB BcA B2A | GAB Bcd ecA | GAB BcA ~B3 | cBA A2G FED :|

